assets/images/toolchain-column-3.svg

<svg width="45" height="44" viewBox="0 0 45 44" fill="none" xmlns="http://www.w3.org/2000/svg">
<path d="M1.92778 0.000256945C1.14931 -0.0109836 0.51005 0.681789 0.50012 1.54751C0.499056 1.63842 0.505085 1.72933 0.518207 1.81905L6.50264 42.2203C6.65656 43.2408 7.44709 43.9912 8.3777 43.9999H37.0875C37.7858 44.0097 38.3853 43.4497 38.4971 42.6829L44.4817 1.82694C44.6063 0.972268 44.0843 0.16709 43.3158 0.0284569C43.2351 0.0138639 43.1535 0.00715904 43.0717 0.00834226L1.92778 0.000256945ZM27.1272 29.1998H17.9638L15.4827 14.7843H29.3477L27.1272 29.1998Z" fill="#2684FF"/>
<path d="M42.5419 14.7639H29.3222L27.1034 29.168H17.9473L7.13623 43.4389C7.47883 43.7684 7.91576 43.9516 8.36865 43.9558H37.0625C37.7603 43.9658 38.3595 43.406 38.4712 42.6401L42.5419 14.7639Z" fill="url(#paint0_linear_2229_3181)"/>
<defs>
<linearGradient id="paint0_linear_2229_3181" x1="45.6088" y1="18.8213" x2="28.0959" y2="41.1806" gradientUnits="userSpaceOnUse">
<stop offset="0.18" stop-color="#0052CC"/>
<stop offset="1" stop-color="#2684FF"/>
</linearGradient>
</defs>
</svg>

<svg xmlns="http://www.w3.org/2000/svg" width="45" height="44" fill="none"><path fill="#2684FF" d="M1.928 0C1.149-.01.51.682.5 1.548q0 .136.018.271L6.503 42.22c.154 1.02.944 1.771 1.875 1.78h28.71c.698.01 1.297-.55 1.41-1.317l5.984-40.856c.124-.855-.398-1.66-1.166-1.799a1.3 1.3 0 0 0-.244-.02zm25.2 29.2h-9.164l-2.481-14.416h13.865z"/><path fill="url(#a)" d="M42.542 14.764h-13.22l-2.219 14.404h-9.156l-10.81 14.27c.342.33.779.514 1.232.518h28.694c.697.01 1.296-.55 1.408-1.316z"/><defs><linearGradient id="a" x1="45.609" x2="28.096" y1="18.821" y2="41.181" gradientUnits="userSpaceOnUse"><stop offset=".18" stop-color="#0052CC"/><stop offset="1" stop-color="#2684FF"/></linearGradient></defs></svg>
